public/icons/networks/flow.svg

<svg xmlns="http://www.w3.org/2000/svg" xmlns:xlink="http://www.w3.org/1999/xlink" width="32px" height="32px" viewBox="0 0 32 32" version="1.1">
<g id="surface1">
<path style=" stroke:none;fill-rule:nonzero;fill:rgb(0%,93.725491%,54.509807%);fill-opacity:1;" d="M 31.9375 16.03125 C 31.9375 7.25 24.816406 0.128906 16.03125 0.128906 C 7.25 0.128906 0.128906 7.25 0.128906 16.03125 C 0.128906 24.816406 7.25 31.9375 16.03125 31.9375 C 24.816406 31.9375 31.9375 24.816406 31.9375 16.03125 Z M 31.9375 16.03125 "/>
<path style=" stroke:none;fill-rule:nonzero;fill:rgb(100%,100%,100%);fill-opacity:1;" d="M 18.523438 13.542969 L 23.015625 13.542969 L 23.015625 18.035156 L 18.523438 18.035156 Z M 18.523438 13.542969 "/>
<path style=" stroke:none;fill-rule:nonzero;fill:rgb(100%,100%,100%);fill-opacity:1;" d="M 14.027344 19.71875 C 14.027344 20.644531 13.273438 21.402344 12.34375 21.402344 C 11.417969 21.402344 10.664062 20.644531 10.664062 19.71875 C 10.664062 18.789062 11.417969 18.035156 12.34375 18.035156 L 14.027344 18.035156 L 14.027344 13.546875 L 12.34375 13.546875 C 8.933594 13.546875 6.167969 16.3125 6.167969 19.726562 C 6.167969 23.136719 8.933594 25.902344 12.34375 25.902344 C 15.757812 25.902344 18.523438 23.136719 18.523438 19.726562 L 18.523438 18.042969 L 14.035156 18.042969 L 14.035156 19.71875 Z M 14.027344 19.71875 "/>
<path style=" stroke:none;fill-rule:nonzero;fill:rgb(100%,100%,100%);fill-opacity:1;" d="M 20.203125 11.296875 L 25.253906 11.296875 L 25.253906 6.804688 L 20.203125 6.804688 C 16.792969 6.808594 14.035156 9.566406 14.027344 12.980469 L 14.027344 13.542969 L 18.515625 13.542969 L 18.515625 12.980469 C 18.523438 12.050781 19.277344 11.296875 20.203125 11.296875 Z M 20.203125 11.296875 "/>
<path style=" stroke:none;fill-rule:nonzero;fill:rgb(8.627451%,100%,60.000002%);fill-opacity:1;" d="M 14.027344 18.035156 L 18.523438 18.035156 L 18.523438 13.542969 L 14.027344 13.542969 Z M 14.027344 18.035156 "/>
</g>
</svg>

<svg xmlns="http://www.w3.org/2000/svg" width="32" height="32" viewBox="0 0 32 32"><path style="stroke:none;fill-rule:nonzero;fill:#00ef8b;fill-opacity:1" d="M31.938 16.031C31.938 7.25 24.816.13 16.03.13 7.25.129.13 7.25.13 16.03c0 8.785 7.121 15.907 15.902 15.907 8.785 0 15.907-7.122 15.907-15.907Zm0 0"/><path style="stroke:none;fill-rule:nonzero;fill:#fff;fill-opacity:1" d="M18.523 13.543h4.493v4.492h-4.493Zm-4.496 6.176c0 .926-.754 1.683-1.683 1.683a1.683 1.683 0 0 1 0-3.367h1.683v-4.488h-1.683a6.177 6.177 0 0 0 0 12.355 6.177 6.177 0 0 0 6.18-6.175v-1.684h-4.489v1.676Zm6.176-8.422h5.05V6.805h-5.05a6.182 6.182 0 0 0-6.176 6.175v.563h4.489v-.563a1.695 1.695 0 0 1 1.687-1.683Zm0 0"/><path style="stroke:none;fill-rule:nonzero;fill:#16ff99;fill-opacity:1" d="M14.027 18.035h4.496v-4.492h-4.496Zm0 0"/></svg>
